X: 19651
T: Jeanne O'Neil's
R: jig
M: 6/8
K: Gmajor
|:"G"dcB Bcd|"C"ege dcB|"G"dcB Bcd|"D7"cBA ABc|
"G"dcB Bcd|"C"ege dcB|"G"ABc def|"D"agf "G"g3:|
|:"D" AFA d^cB|AFF F2B|AFA ^cBA|"A7"GEE E2B|
"D"AFA d^cB|AB^c def|"G"gfe "D"d^cB|"A7"AB^c "D"d3:|

